launcher/android/assets/skins/day/svg/map-state-lock.svg

<svg enable-background="new 0 0 78.13 78.25" height="78.25" viewBox="0 0 78.13 78.25" width="78.125" xmlns="http://www.w3.org/2000/svg" xmlns:xlink="http://www.w3.org/1999/xlink"><linearGradient id="a" gradientTransform="matrix(0 1 -1 0 -1.847377 -2.847377)" gradientUnits="objectBoundingBox" x1=".5" x2="6.19475" y1="-2.34738" y2="-2.34738"><stop offset=".427907" stop-color="#eeeaea"/><stop offset=".576744" stop-color="#fff" stop-opacity="0"/></linearGradient><linearGradient id="b" gradientTransform="matrix(0 -1 1 0 -.518738 1.518672)" gradientUnits="objectBoundingBox" x1=".499967" x2="1.53738" y1="1.01871" y2="1.01871"><stop offset="0" stop-color="#f00"/><stop offset="1" stop-color="#5e1515"/></linearGradient><g stroke-linejoin="round"><path d="m11.5.499988h55.125c6.0752 0 11 4.924862 11 11.000012v55.25c0 6.0751-4.9248 11-11 11h-55.125c-6.07513 0-11-4.9249-11-11v-55.25c0-6.07515 4.92487-11.000012 11-11.000012z" fill="#8c9e64" stroke="#000"/><path d="m65.9047.85419h-53.862c-5.48902 0-10.017 4.21122-10.66767 9.64901 1.28571 2.512 3.85748 4.226 6.8204 4.226h61.92287c2.7386 0 5.1431-1.4643 6.5067-3.6696-.3978-5.70421-5.0455-10.20541-10.7203-10.20541z" fill="url(#a)" stroke-width=".2"/><path d="m16.0325 39.875h-10.92004v-21.28h2.80002v18.76h8.12002z"/><path d="m17.2925 29.4888c0-3.4125.9282-6.1279 2.7847-8.1463 1.8564-2.0183 4.3699-3.0275 7.5403-3.0275 2.9546 0 5.3324.9866 7.1334 2.9597 1.8011 1.9731 2.7016 4.542 2.7016 7.7066 0 3.43-.9231 6.1498-2.7694 8.1593-1.8462 2.0096-4.3152 3.0144-7.4069 3.0144-3.0158 0-5.4337-.9865-7.2537-2.9597-1.82-1.9731-2.73-4.5419-2.73-7.7065zm2.8-.2319c0 2.5317.6642 4.5609 1.9928 6.0878 1.3285 1.5269 3.0603 2.2903 5.1953 2.2903 2.2954 0 4.0979-.7321 5.4075-2.1962 1.3096-1.4642 1.9644-3.5117 1.9644-6.1425 0-2.7038-.641-4.7899-1.9229-6.2585-1.2818-1.4685-3.0369-2.2028-5.2652-2.2028-2.1934 0-3.9704.7751-5.331 2.3253s-2.0409 3.5824-2.0409 6.0966z"/><path d="m55.9325 38.685c-1.5692.98-3.5365 1.47-5.9019 1.47-3.0538 0-5.4936-.9618-7.3194-2.8853s-2.7387-4.4676-2.7387-7.6322c0-3.4008 1.0274-6.1381 3.0822-8.2119 2.0548-2.0737 4.6644-3.1106 7.829-3.1106 2.0359 0 3.7188.3967 5.0488 1.19v2.52c-1.5342-.7933-3.22-1.19-5.0575-1.19-2.3917 0-4.34.7773-5.845 2.3319s-2.2575 3.6517-2.2575 6.2912c0 2.5055.7022 4.4946 2.1065 5.9675 1.4044 1.473 3.2412 2.2094 5.5103 2.2094 2.1263 0 3.974-.49 5.5432-1.47z"/><path d="m74.9725 39.875h-3.64l-7.84-9.625c-.2421-.3383-.4084-.6023-.4988-.7919h-.0612v10.4169h-2.8v-21.28h2.8v9.9663h.0612c.1371-.245.3034-.5046.4988-.7788l7.56-9.1875h3.36l-8.68 10.2069z"/><path d="m11.6514 56.7865h54.8219c1.4299 0 2.5891 1.1591 2.5891 2.589l0 0c0 1.4298-1.1592 2.589-2.5891 2.589h-54.8219c-1.4298 0-2.58899-1.1592-2.58899-2.589l0 0c0-1.4299 1.15919-2.589 2.58899-2.589z" fill="url(#b)" stroke-width=".2"/></g></svg>

﻿<?xml version="1.0" encoding="utf-8"?>
<!DOCTYPE svg PUBLIC "-//W3C//DTD SVG 1.1//EN" "http://www.w3.org/Graphics/SVG/1.1/DTD/svg11.dtd">
<svg xmlns="http://www.w3.org/2000/svg" xmlns:xlink="http://www.w3.org/1999/xlink" version="1.1" baseProfile="full" width="78.125" height="78.25" viewBox="0 0 78.13 78.25" enable-background="new 0 0 78.13 78.25" xml:space="preserve">
	<g>
		<path fill="#8C9E64" fill-opacity="1" stroke-linejoin="round" stroke="#000000" stroke-opacity="1" d="M 11.5,0.499988L 66.625,0.499988C 72.7002,0.499988 77.625,5.42485 77.625,11.5L 77.625,66.75C 77.625,72.8251 72.7002,77.75 66.625,77.75L 11.5,77.75C 5.42487,77.75 0.5,72.8251 0.5,66.75L 0.5,11.5C 0.5,5.42485 5.42487,0.499988 11.5,0.499988 Z "/>
		<linearGradient id="SVGID_Fill1_" gradientUnits="objectBoundingBox" x1="0.5" y1="-2.34738" x2="6.19475" y2="-2.34738" gradientTransform="rotate(90.000000 0.500000 -2.347377)">
			<stop offset="0.427907" stop-color="#EEEAEA" stop-opacity="1"/>
			<stop offset="0.576744" stop-color="#FFFFFF" stop-opacity="0"/>
		</linearGradient>
		<path fill="url(#SVGID_Fill1_)" stroke-width="0.2" stroke-linejoin="round" d="M 65.9047,0.85419L 12.0427,0.85419C 6.55368,0.85419 2.0257,5.06541 1.37503,10.5032C 2.66074,13.0152 5.23251,14.7292 8.19543,14.7292L 70.1183,14.7292C 72.8569,14.7292 75.2614,13.2649 76.625,11.0596C 76.2272,5.35539 71.5795,0.85419 65.9047,0.85419 Z "/>
	</g>
	<g>
		<path fill="#000000" fill-opacity="1" stroke-linejoin="round" d="M 16.0325,39.875L 5.11246,39.875L 5.11246,18.595L 7.91248,18.595L 7.91248,37.355L 16.0325,37.355L 16.0325,39.875 Z "/>
		<path fill="#000000" fill-opacity="1" stroke-linejoin="round" d="M 17.2925,29.4888C 17.2925,26.0763 18.2207,23.3609 20.0772,21.3425C 21.9336,19.3242 24.4471,18.315 27.6175,18.315C 30.5721,18.315 32.9499,19.3016 34.7509,21.2747C 36.552,23.2478 37.4525,25.8167 37.4525,28.9813C 37.4525,32.4113 36.5294,35.1311 34.6831,37.1406C 32.8369,39.1502 30.3679,40.155 27.2762,40.155C 24.2604,40.155 21.8425,39.1685 20.0225,37.1953C 18.2025,35.2222 17.2925,32.6534 17.2925,29.4888 Z M 20.0925,29.2569C 20.0925,31.7886 20.7567,33.8178 22.0853,35.3447C 23.4138,36.8716 25.1456,37.635 27.2806,37.635C 29.576,37.635 31.3785,36.9029 32.6881,35.4388C 33.9977,33.9746 34.6525,31.9271 34.6525,29.2963C 34.6525,26.5925 34.0115,24.5064 32.7296,23.0378C 31.4478,21.5693 29.6927,20.835 27.4644,20.835C 25.271,20.835 23.494,21.6101 22.1334,23.1603C 20.7728,24.7105 20.0925,26.7427 20.0925,29.2569 Z "/>
		<path fill="#000000" fill-opacity="1" stroke-linejoin="round" d="M 55.9325,38.685C 54.3633,39.665 52.396,40.155 50.0306,40.155C 46.9768,40.155 44.537,39.1932 42.7112,37.2697C 40.8854,35.3462 39.9725,32.8021 39.9725,29.6375C 39.9725,26.2367 40.9999,23.4994 43.0547,21.4256C 45.1095,19.3519 47.7191,18.315 50.8837,18.315C 52.9196,18.315 54.6025,18.7117 55.9325,19.505L 55.9325,22.025C 54.3983,21.2317 52.7125,20.835 50.875,20.835C 48.4833,20.835 46.535,21.6123 45.03,23.1669C 43.525,24.7215 42.7725,26.8186 42.7725,29.4581C 42.7725,31.9636 43.4747,33.9527 44.879,35.4256C 46.2834,36.8986 48.1202,37.635 50.3893,37.635C 52.5156,37.635 54.3633,37.145 55.9325,36.165L 55.9325,38.685 Z "/>
		<path fill="#000000" fill-opacity="1" stroke-linejoin="round" d="M 74.9725,39.875L 71.3325,39.875L 63.4925,30.25C 63.2504,29.9117 63.0841,29.6477 62.9937,29.4581L 62.9325,29.4581L 62.9325,39.875L 60.1325,39.875L 60.1325,18.595L 62.9325,18.595L 62.9325,28.5613L 62.9937,28.5613C 63.1308,28.3163 63.2971,28.0567 63.4925,27.7825L 71.0525,18.595L 74.4125,18.595L 65.7325,28.8019L 74.9725,39.875 Z "/>
	</g>
	<linearGradient id="SVGID_Fill2_" gradientUnits="objectBoundingBox" x1="0.499967" y1="1.01871" x2="1.53738" y2="1.01871" gradientTransform="rotate(-90.000000 0.499967 1.018705)">
		<stop offset="0" stop-color="#FF0000" stop-opacity="1"/>
		<stop offset="1" stop-color="#5E1515" stop-opacity="1"/>
	</linearGradient>
	<path fill="url(#SVGID_Fill2_)" stroke-width="0.2" stroke-linejoin="round" d="M 11.6514,56.7865L 66.4733,56.7865C 67.9032,56.7865 69.0624,57.9456 69.0624,59.3755L 69.0624,59.3755C 69.0624,60.8053 67.9032,61.9645 66.4733,61.9645L 11.6514,61.9645C 10.2216,61.9645 9.06241,60.8053 9.06241,59.3755L 9.06241,59.3755C 9.06241,57.9456 10.2216,56.7865 11.6514,56.7865 Z "/>
</svg>
